X:24
T:Bourr\'ee d'Aurore Sand
C:trad.
M:2/4
R:bourr\'ee 2 temps
Q:250
L:1/8
K:Dm
A|:D>E FG|A3 A|Ad ^cd|A3 A|B>A GE|F>E DF|ED EF|1E3A:|2D4||
|:A>G FG|A>G FG|A>G AB|AG FG|A>G FG|A>G AB|AG FE|D4:|
